svg/clickhouse.svg

<svg viewBox="0 0 20 20" xmlns="http://www.w3.org/2000/svg">
<rect width="100%" height="100%" fill="#161615"/>
<path d="M4.39189 3H3.16362C3.07326 3 3 3.07326 3 3.16363V16.8364C3 16.9267 3.07326 17 3.16362 17H4.39189C4.48225 17 4.55551 16.9267 4.55551 16.8364V3.16363C4.55551 3.07326 4.48225 3 4.39189 3Z" fill="#FCFF69"/>
<path d="M7.50301 3H6.27474C6.18438 3 6.11112 3.07326 6.11112 3.16363V16.8364C6.11112 16.9267 6.18438 17 6.27474 17H7.50301C7.59337 17 7.66663 16.9267 7.66663 16.8364V3.16363C7.66663 3.07326 7.59337 3 7.50301 3Z" fill="#FCFF69"/>
<path d="M9.38587 3H10.6141C10.7045 3 10.7778 3.07326 10.7778 3.16363V16.8364C10.7778 16.9267 10.7045 17 10.6141 17H9.38587C9.2955 17 9.22225 16.9267 9.22225 16.8364V3.16363C9.22225 3.07326 9.2955 3 9.38587 3Z" fill="#FCFF69"/>
<path d="M13.7246 3H12.4963C12.4059 3 12.3327 3.07326 12.3327 3.16363V16.8364C12.3327 16.9267 12.4059 17 12.4963 17H13.7246C13.8149 17 13.8882 16.9267 13.8882 16.8364V3.16363C13.8882 3.07326 13.8149 3 13.7246 3Z" fill="#FCFF69"/>
<path d="M15.6081 8.4448H16.8364C16.9267 8.4448 17 8.51806 17 8.60843V11.3923C17 11.4827 16.9267 11.5559 16.8364 11.5559H15.6081C15.5177 11.5559 15.4445 11.4827 15.4445 11.3923V8.60843C15.4445 8.51806 15.5177 8.4448 15.6081 8.4448Z" fill="#FCFF69"/>
</svg>

<svg xmlns="http://www.w3.org/2000/svg" viewBox="0 0 20 20">
  <rect width="100%" height="100%" fill="#161615"/>
  <path fill="#FCFF69" d="M4.4 3H3.15a.16.16 0 0 0-.16.16v13.68c0 .09.07.16.16.16H4.4c.1 0 .17-.07.17-.16V3.16A.16.16 0 0 0 4.39 3ZM7.5 3H6.27a.16.16 0 0 0-.16.16v13.68c0 .09.07.16.16.16H7.5c.1 0 .17-.07.17-.16V3.16A.16.16 0 0 0 7.5 3ZM9.39 3h1.22c.1 0 .17.07.17.16v13.68c0 .09-.08.16-.17.16H9.4a.16.16 0 0 1-.17-.16V3.16c0-.09.08-.16.17-.16ZM13.72 3H12.5a.16.16 0 0 0-.17.16v13.68c0 .09.08.16.17.16h1.22c.1 0 .17-.07.17-.16V3.16a.16.16 0 0 0-.17-.16ZM15.6 8.44h1.24c.09 0 .16.08.16.17v2.78c0 .1-.07.17-.16.17H15.6a.16.16 0 0 1-.17-.17V8.61c0-.1.08-.17.17-.17Z"/>
</svg>
